X: 3
T: Piano Sonata No. 1 in C major, K 279 (189d), mvmt. 3
C: Wolfgang Amadeus Mozart
%%abc-version 2.0
%%abcx-abcm2ps-target-version 5.9.1 (29 Sep 2008)
%%abc-creator hum2abc beta
%%abcx-conversion-date 2021/01/14 17:01:31
%%abc-copyright 2018 Craig Stuart Sapp
%%abc-edited-by Craig Stuart Sapp
%%abc-edited-by Craig Stuart Sapp
%%abcx-initial-encoding-date 2009/10/12
%%gracespace 0 6 6
%%humdrum-veritas 3252082948
%%humdrum-veritas-data 1929307559
%%linebreak <none>
%%barnumbers 0
L: 1/8
M: 2/4
N: Derived from sonata01-3.krn
Q: "Allegro" 1/4=132
%%staves {1 2}
V: 1 clef=treble
V: 2 clef=bass
K: C
[V:1] G [I:setbarnb 1]| 
[V:2] z[K:clef=treble] | 
[V:1] c4 | 
[V:2] z [EG][DF][CE] | 
[V:1] f4 | 
[V:2] z [B,D][A,C][G,B,] | 
[V:1] e/g/f/e/ a/f/d/c/ | 
[V:2] CcF^F | 
[V:1] B/c/d/B/ A/G/^F/G/ | 
[V:2] .G2G,2[K:clef=bass] | 
[V:1] C4 | 
[V:2] z [E,G,][D,=F,][C,E,] | 
[V:1] F4 | 
[V:2] z [B,,D,][A,,C,][G,,B,,] | 
[V:1] E/G/c/G/ ^F/G/=F/G/ | 
[V:2] C,E,D,B,, | 
[V:1] E/G/c/G/ ^F/G/=F/G/ | 
[V:2] C,E,D,B,, | 
[V:1] E/G/C/E/ D/F/B,/D/ | 
[V:2] C,E,F,G, | 
[V:1] C2z !trill!G {/^FG} | 
[V:2] C,G,,C,,2[K:clef=treble] | 
[V:1] c/G/e/c/ g/^f/g/e/ | 
[V:2] [C2E2G2]z2 | 
[V:1] e/d/^c/d/ c/d/c/d/ | 
[V:2] [B,2D2G2]z2 | 
[V:1] g/a/b/.^f/ g/d/e/B/ | 
[V:2] [B,2D2G2]z2 | 
[V:1] d/=c/B/c/ B/c/B/c/ | 
[V:2] [A,2C2^F2]z2 | 
[V:1] a/b/c'/.a/ ^f/e/d/c/ | 
[V:2] [D4^F4] | 
[V:1] c/B/^A/B/ c/B/A/B/ | 
[V:2] [E2G2][D2^F2] | 
[V:1] =A/c/e/.d/ c/B/A/G/ | 
[V:2] [C3E3][^CE] | 
[V:1] ^F z .^f.g | 
[V:2] .D/d/^c/d/ =c/d/B/d/ | 
[V:1] .a.b .[ac'].[gb] | 
[V:2] A/d/G/d/ ^F/d/G/d/ | 
[V:1] [^fa] z .^F!trill!G {/FG} | 
[V:2] .D/[K:clef=bass] D/^C/D/ =C/D/B,/D/ | 
[V:1] .A!trill!B {/AB} .[Ac].[GB] | 
[V:2] A,/D/G,/D/ ^F,/D/G,/D/ | 
[V:1] [^F2A2]z .d | 
[V:2] D,2z2 | 
[V:1] .d.d.d.d | 
[V:2] z4[K:clef=treble] | 
[V:1] g3^f | 
[V:2] z B^cd & xE2D | 
[V:1] .B.B.B.B | 
[V:2] z4 | 
[V:1] e3d | 
[V:2] z GAB & x=C2B, | 
[V:1] .G.G.G.G | 
[V:2] z4 | 
[V:1] c2z B | 
[V:2] z E^FG & xA,2G, | 
[V:1] e2z G | 
[V:2] z C^C2 | 
[V:1] ^F2z [G_B] | 
[V:2] D ^cd2 | 
[V:1] [^F2A2][K:clef=bass]z [G,_B,] | 
[V:2] z ^CD2[K:clef=bass] | 
[V:1] [^F,2A,2]z2 | 
[V:2] z [^D,,^D,][E,,E,][^F,,^F,] | 
[V:1] z4 | 
[V:2] [G,,G,] [B,,,B,,][C,,C,][=D,,=D,] | 
[V:1] z[K:clef=treble] g/c'/ b/^f/e/a/ | 
[V:2] [E,,E,][K:clef=treble] edc | 
[V:1] g/d/c/^f/ e/B/A/d/ | 
[V:2] BAG^F | 
[V:1] c/G/^F/B/ A/E/D/G/ | 
[V:2] EDCB,[K:clef=bass] | 
[V:1] z [ce][Bd][^FA] | 
[V:2] C,2D,2 | 
[V:1] G2{/C//} c z | 
[V:2] G,,/G,/^F,/G,/ E,/G,/F,/G,/ | 
[V:1] {/B,//} B z {/A,//} A z | 
[V:2] D,/G,/^F,/G,/ C,/G,/F,/G,/ | 
[V:1] {/G,//} G z {/C//} .c.c | 
[V:2] B,,/G,/^F,/G,/ E,/G,/F,/G,/ | 
[V:1] {/B,//} .B.B {/A,//} .A.A | 
[V:2] D,/G,/^F,/G,/ C,/G,/F,/G,/ | 
[V:1] {/D//} .d z {/B//} .c.c | 
[V:2] B,,/G,/^F,/G,/[K:clef=treble] E/G/^F/G/ | 
[V:1] {/^A//} .BB {/^G//} .=A.A | 
[V:2] D/G/^F/G/ C/G/F/G/ | 
[V:1] {/^c//} .d z =c/d/e/c/ | 
[V:2] B,/G/^F/G/[C2E2A2] | 
[V:1] B/c/d/B/ A/B/c/A/ | 
[V:2] [D2G2][D2^F2] | 
[V:1] .G/g/b/a/ g/^f/e/d/ | 
[V:2] [G,2G2]z2 | 
[V:1] ^c2=c.B | 
[V:2] [E2G2][^FA].G | 
[V:1] .A z e/c'/b/c'/ | 
[V:2] .[CE] z C/A/^G/A/ | 
[V:1] d/b/a/b/ d/a/g/a/ | 
[V:2] D/=G/^F/G/ D/F/E/F/ | 
[V:1] g/G/B/A/ G/^F/E/D/ | 
[V:2] G2z2[K:clef=bass] | 
[V:1] ^C2=C.B, | 
[V:2] [E,2G,2][^F,A,].G, | 
[V:1] .A, z E/c/B/c/ | 
[V:2] .[C,E,] z C,/A,/^G,/A,/ | 
[V:1] D/B/A/B/ D/A/G/A/ | 
[V:2] D,/=G,/^F,/G,/ D,/F,/E,/F,/ | 
[V:1] G/D/G/B/ d/c/A/^F/ | 
[V:2] G,2[D,2A,2] | 
[V:1] G/g/d/B/ d/c/A/^F/ | 
[V:2] [G,2B,2][D,2A,2C2] | 
[V:1] G2z :|]|:  
[V:2] [G,2B,2]z :|]|:  
[V:1] .d [I:setbarnb 57]| 
[V:2] z | 
[V:1] .d.d.d.d | 
[V:2] z4[K:clef=treble] | 
[V:1] g3^f | 
[V:2] z [B,D][^CB][DA] | 
[V:1] .B.B.B.B | 
[V:2] z4 | 
[V:1] e3d | 
[V:2] z [G,B,][^A,G][B,^F] | 
[V:1] .G.G.G.G | 
[V:2] [B,2=F2][=C2E2] | 
[V:1] c3B & z EA^G | 
[V:2] A,2z .E | 
[V:1] z4 | 
[V:2] .E.E.E.E | 
[V:1] z [ce][^dc'][eb] | 
[V:2] A3=G | 
[V:1] z4 | 
[V:2] .C.C.C.C | 
[V:1] z [Ac][Ba][cg] | 
[V:2] =F3E | 
[V:1] z4 | 
[V:2] .A,.A,.A,.A, | 
[V:1] z [=FA][^G=f][Ae] | 
[V:2] D3C[K:clef=bass] | 
[V:1] z .a/.^d/ c'a | 
[V:2] [F,2F2]z [F,,F,] | 
[V:1] z .^g/.e/ bg | 
[V:2] [E,,2E,2]z [E,E] | 
[V:1] z .a/.^d/ .c'.a | 
[V:2] [F,2F2]z [F,,F,] | 
[V:1] ^g c'/e/ b/e/a/e/ | 
[V:2] [E,,E,][K:clef=treble] A^Gc & xx2E | 
[V:1] ^g/e/c'/e/ b/e/a/e/ | 
[V:2] BA^Gc & E2z E | 
[V:1] ^g/e/a/e/ b/e/c'/e/ | 
[V:2] Bc^GA & E4 | 
[V:1] b2{/^d//}e2 | 
[V:2] ^G2[K:clef=bass]{/^D//}E2 & E2x2 | 
[V:1] E2!fermata!z B, | 
[V:2] [E,,2E,2]!fermata!z z | 
[V:1] E4 | 
[V:2] z [=G,B,][^F,A,][E,G,] | 
[V:1] A4 | 
[V:2] z [^D,^F,][^C,E,][B,,D,] | 
[V:1] G_B/A/ G/=F/E/=D/ | 
[V:2] [E,,4E,4] | 
[V:1] ^CE/D/ C/A,/=B,/C/ | 
[V:2] [G,,4G,4] | 
[V:1] D4 | 
[V:2] [=F,,=F,] [F,A,][E,G,][D,F,] | 
[V:1] G4 | 
[V:2] z [^C,E,][B,,D,][A,,C,] | 
[V:1] FA/G/ F/E/D/=C/ | 
[V:2] [D,,4D,4] | 
[V:1] B,D/C/ B,/G,/A,/B,/ | 
[V:2] [F,,4F,4] | 
[V:1] C4 | 
[V:2] [E,,E,] [E,G,][D,F,][C,E,] | 
[V:1] z2z G & F4 | 
[V:2] z [B,,D,][A,,C,][G,,B,,][K:clef=treble] | 
[V:1] {/E//}c4 | 
[V:2] z [EG][DF][CE] | 
[V:1] {/G//}f4 | 
[V:2] z [B,D][A,C][G,B,] | 
[V:1] e/g/f/e/ a/f/d/c/ | 
[V:2] CcF^F | 
[V:1] B/c/d/B/ A/G/^F/G/ | 
[V:2] .G2G,2[K:clef=bass] | 
[V:1] z [eg][d=f][ce] | 
[V:2] [C,,4C,4] | 
[V:1] z [Bd][Ac][GB] | 
[V:2] [F,,4F,4] | 
[V:1] cedB | 
[V:2] E,/G,/C/G,/ ^F,/G,/=F,/G,/ | 
[V:1] c/e/c/G/ ^F/G/=F/G/ | 
[V:2] E,E,D,B,, | 
[V:1] E/G/C/E/ D/F/B,/D/ | 
[V:2] C,E,F,G, | 
[V:1] C2z !trill!c {/Bc} | 
[V:2] C,G,,C,,2[K:clef=treble] | 
[V:1] e/c/g/e/ _b/a/b/g/ | 
[V:2] [C2G2_B2]z2 | 
[V:1] g/f/e/f/ e/f/e/f/ | 
[V:2] [C2F2A2]z2 | 
[V:1] f/c/a/f/ c'/=b/c'/a/ | 
[V:2] [C2F2A2]z2 | 
[V:1] a/g/^f/g/ f/g/f/g/ | 
[V:2] [C2E2G2]z2 | 
[V:1] c'/b/a/g/ =f/e/d/c/ | 
[V:2] [E2G2]z2 | 
[V:1] e/d/^c/d/ e/d/c/d/ | 
[V:2] [F2A2]z2 | 
[V:1] d/f/a/.g/ f/e/d/=c/ | 
[V:2] [F3A3][^FA] | 
[V:1] B z .B.c | 
[V:2] .G,/G/^F/G/ =F/G/E/G/ | 
[V:1] .d.e .[df].[ce] | 
[V:2] D/G/C/G/ B,/G/C/G/ | 
[V:1] [Bd] z .B,!trill!C {/B,C} | 
[V:2] .G,/[K:clef=bass] G,/^F,/G,/ =F,/G,/E,/G,/ | 
[V:1] .D!trill!E {/DE} [DF][CE] | 
[V:2] D,/G,/C,/G,/ B,,/G,/C,/G,/ | 
[V:1] [B,2D2]z .g | 
[V:2] G,,2z2 | 
[V:1] .g.g.g.g | 
[V:2] z4[K:clef=treble] | 
[V:1] c'3b | 
[V:2] z e^fg & xA2G | 
[V:1] .e.e.e.e | 
[V:2] z4 | 
[V:1] a3g | 
[V:2] z cde & x=F2E | 
[V:1] .c.c.c.c | 
[V:2] z4 | 
[V:1] f2z e | 
[V:2] z ABc & xD2C | 
[V:1] a2z c | 
[V:2] z F^F2 | 
[V:1] B2z [c_e] | 
[V:2] G ^fg2 | 
[V:1] [B2d2]z [C_E] | 
[V:2] z ^FG2[K:clef=bass] | 
[V:1] [B,2D2]z2 | 
[V:2] z [^G,,^G,][A,,A,][B,,B,] | 
[V:1] z4 | 
[V:2] [C,C] [E,,E,][F,,F,][=G,,=G,] | 
[V:1] z c/f/ e/B/A/d/ | 
[V:2] [A,,A,][K:clef=treble] AGF | 
[V:1] c/G/F/B/ A/E/D/G/ | 
[V:2] EDCB,[K:clef=bass] | 
[V:1] F/C/B,/E/ D/A,/G,/C/ | 
[V:2] A,G,F,E, | 
[V:1] z [fa][eg][Bd] | 
[V:2] F,2G,2 | 
[V:1] [E2c2]{/F//} f z | 
[V:2] .C,/C/B,/C/ A,/C/B,/C/ | 
[V:1] {/E//} e z {/D//} d z | 
[V:2] G,/C/B,/C/ F,/C/B,/C/ | 
[V:1] {/C//} c z {/F//} .f.f | 
[V:2] E,/C/B,/C/ A,/C/B,/C/ | 
[V:1] {/E//} .e.e {/D//} .d.d | 
[V:2] G,/C/B,/C/ F,/C/B,/C/ | 
[V:1] {/G//} g z {/e//} .f.f | 
[V:2] E,/C/B,/C/[K:clef=treble] A/c/B/c/ | 
[V:1] {/^d//} .e.e {/^c//} .=d.d | 
[V:2] G/c/B/c/ F/c/B/c/ | 
[V:1] {/^f//} g z =f/g/a/f/ | 
[V:2] E/c/B/c/[F2A2d2] | 
[V:1] e/f/g/e/ d/e/f/d/ | 
[V:2] [G2c2][G2B2] | 
[V:1] c2z [c_e] | 
[V:2] z ^fg2[K:clef=bass] | 
[V:1] [B2d2]z [C_E] | 
[V:2] z ^F,G,2 | 
[V:1] [B,2D2]z2 | 
[V:2] z ^F,,G,,2 | 
[V:1] z2z .g | 
[V:2] z4 | 
[V:1] .g.g.g.g | 
[V:2] z4 | 
[V:1] c'3b & z a^fg | 
[V:2] z4 | 
[V:1] a3g & z =f^de | 
[V:2] z4 | 
[V:1] f3e & z =dBc | 
[V:2] z2z .[G,,G,] | 
[V:1] z4 | 
[V:2] .[G,,G,].[G,,G,].[G,,G,].[G,,G,] | 
[V:1] z e^fg & zA2G | 
[V:2] [C,3C3][B,,B,] | 
[V:1] z4 | 
[V:2] .[E,,E,].[E,,E,].[E,,E,].[E,,E,] | 
[V:1] z c^de & z^F2E | 
[V:2] [A,,3A,3][G,,G,] | 
[V:1] z4 | 
[V:2] .[C,,C,].[C,,C,].[C,,C,].[C,,C,] | 
[V:1] z ABc & z=D2C | 
[V:2] [=F,,3=F,3][E,,E,] | 
[V:1] z [fa][eg][Bd] | 
[V:2] [F,,2F,2][G,,2G,2] | 
[V:1] c/ c'/e'/d'/ c'/b/a/g/ | 
[V:2] C,2z2[K:clef=treble] | 
[V:1] ^f2=f.e | 
[V:2] [A2c2][Bd].c | 
[V:1] .d z A/f/e/f/ | 
[V:2] .[FA] z[K:clef=bass] F,/D/^C/D/ | 
[V:1] G/e/d/e/ G/d/c/d/ | 
[V:2] G,/=C/B,/C/ G,/B,/A,/B,/ | 
[V:1] c/c/e/d/ c/B/A/G/ | 
[V:2] [C,2C2]z2 | 
[V:1] ^F2=F.E | 
[V:2] [A,2C2][B,D].C | 
[V:1] .D z A,/F/E/F/ | 
[V:2] .[F,A,] z F,,/D,/^C,/D,/ | 
[V:1] G,/E/D/E/ G,/D/C/D/ | 
[V:2] G,,/=C,/B,,/C,/ G,,/B,,/A,,/B,,/ | 
[V:1] C/G,/C/E/ G/F/D/B,/ | 
[V:2] C,2[G,,2D,2] | 
[V:1] C/G/c/e/ g/f/d/B/ | 
[V:2] [C,2E,2][G,2D2] | 
[V:1] c2!arpeggio![d2f2g2b2] | 
[V:2] [C2E2][G,,2G,2] | 
[V:1] !arpeggio![c2e2g2c'2]z :|]  
[V:2] [C,,2C,2]z :|]  


